src/assets/IconImport.svg

<svg xmlns="http://www.w3.org/2000/svg" viewBox="0 0 24 24">
  <path
    d="M19 17V19H7V17S7 13 13 13 19 17 19 17M16 8A3 3 0 1 0 13 11A3 3 0 0 0 16 8M19.2 13.06A5.6 5.6 0 0 1 21 17V19H24V17S24 13.55 19.2 13.06M18 5A2.91 2.91 0 0 0 17.11 5.14A5 5 0 0 1 17.11 10.86A2.91 2.91 0 0 0 18 11A3 3 0 0 0 18 5M8 10H5V7H3V10H0V12H3V15H5V12H8Z" />
</svg>

<svg xmlns="http://www.w3.org/2000/svg" viewBox="0 0 24 24">
  <path
    d="M19 17v2H7v-2s0-4 6-4 6 4 6 4m-3-9a3 3 0 1 0-3 3 3 3 0 0 0 3-3m3.2 5a6 6 0 0 1 1.8 4v2h3v-2s0-3.4-4.8-4M18 5l-.9.1a5 5 0 0 1 0 5.8l.9.1a3 3 0 0 0 0-6M8 10H5V7H3v3H0v2h3v3h2v-3h3Z" />
</svg>
